**kern	**silbe	**harmony	**phrase	**leadinstrument	**rhyme	**timestamp	**harte
*ICvox	*	*M4/4	*	*	*	*	*M4/4
*VRlead	*	*	*	*	*	*	*
*Hstimme	*	*	*	*	*	*	*
*A-:	*	*A-:	*	*	*	*	*A-:
*M4/4	*	*	*	*	*	*	*
*clefC3	*	*	*	*	*	*	*
r;	.	1r;	.	r	.	0	N.C.
=1	=1	=1	=1	=1	=1	=1	=1
*>Letter>A	*>Letter>A	*>Letter>A	*>Letter>A	*>Letter>A	*>Letter>A	*>Letter>A	*>Letter>A
*>Label>Intro	*>Label>Intro	*>Label>Intro	*>Label>Intro	*>Label>Intro	*>Label>Intro	*>Label>Intro	*>Label>Intro
1r	.	1A-m	newline	strings	.	4.39	A-:5
=2	=2	=2	=2	=2	=2	=2	=2
1r	.	1A-m	.	strings	.	7.93	A-:5
=3	=3	=3	=3	=3	=3	=3	=3
1r	.	1A-m	.	strings	.	11.47	A-:5
=4	=4	=4	=4	=4	=4	=4	=4
1r	.	1A-m	.	strings	.	15.01	A-:5
=5	=5	=5	=5	=5	=5	=5	=5
1r	.	1A-m	newline	piano	.	18.551	A-:5
=6	=6	=6	=6	=6	=6	=6	=6
1r	.	1A-m	.	piano	.	22.209	A-:5
=7	=7	=7	=7	=7	=7	=7	=7
1r	.	1A-M	newline	piano	.	25.868	A-:min/b3
=8	=8	=8	=8	=8	=8	=8	=8
1r	.	1D-M	.	piano	.	29.477	D-:sus2
=9	=9	=9	=9	=9	=9	=9	=9
1r	.	2.F-M	.	piano	.	33.086	F-:1(3,7)
.	.	4A-m	.	piano	.	35.792	A-:5/5
=10	=10	=10	=10	=10	=10	=10	=10
1r	.	1A-m	.	piano	.	36.694	A-:5
=11	=11	=11	=11	=11	=11	=11	=11
1r	.	1A-m	newline	piano	.	40.303	A-:min/b3
=12	=12	=12	=12	=12	=12	=12	=12
1r	.	2.D-M	.	piano	.	44.163	D-:sus2
.	.	4A-m	.	piano	.	47.057	A-:5/b7
=13	=13	=13	=13	=13	=13	=13	=13
1r	.	1F-m	.	piano	.	48.022	F-:1(3,7)
=14	=14	=14	=14	=14	=14	=14	=14
1r	.	1A-m	.	piano	.	51.882	A-:5/b7
=15	=15	=15	=15	=15	=15	=15	=15
1r	.	1B-mm	newline	guitar	.	55.742	B-:min7
=16	=16	=16	=16	=16	=16	=16	=16
1r	.	1E-MM	.	guitar	.	59.3	E-:maj7
=17	=17	=17	=17	=17	=17	=17	=17
1r	.	1B-mm	.	guitar	.	62.858	B-:min7
=18	=18	=18	=18	=18	=18	=18	=18
1r	.	1G-M	.	guitar	.	66.416	G-:maj/b7
=19	=19	=19	=19	=19	=19	=19	=19
1r	.	1E-mm	newline	guitar	.	69.974	E-:min7
=20	=20	=20	=20	=20	=20	=20	=20
1r	.	1BMm	.	guitar	.	73.311	B:7(11)
=21	=21	=21	=21	=21	=21	=21	=21
1r	.	1EMM	.	guitar	.	76.648	E:maj7
=22	=22	=22	=22	=22	=22	=22	=22
1r	.	1EMM	.	guitar	.	79.985	E:maj7
=23	=23	=23	=23	=23	=23	=23	=23
1r	.	1GMm	.	guitar	.	83.322	G:7
r;	.	1r;	.	r	.	86.659	N.C.
=24	=24	=24	=24	=24	=24	=24	=24
*>Letter>B	*>Letter>B	*>Letter>B	*>Letter>B	*>Letter>B	*>Letter>B	*>Letter>B	*>Letter>B
*>Label>Trans	*>Label>Trans	*>Label>Trans	*>Label>Trans	*>Label>Trans	*>Label>Trans	*>Label>Trans	*>Label>Trans
*C:	*	*C:	*C:	*C:	*	*C:	*C:
1r	.	1CM	newline	guitar	.	89.997	C:maj
=25	=25	=25	=25	=25	=25	=25	=25
1r	.	1CM	.	guitar	.	91.886	C:maj
=26	=26	=26	=26	=26	=26	=26	=26
*>Letter>C	*>Letter>C	*>Letter>C	*>Letter>C	*>Letter>C	*>Letter>C	*>Letter>C	*>Letter>C
*>Label>Verse	*>Label>Verse	*>Label>Verse	*>Label>Verse	*>Label>Verse	*>Label>Verse	*>Label>Verse	*>Label>Verse
4e	Sun-	1CM	newline	voice	.	93.775	C:maj
2.g	-rise	.	.	.	.	.	.
=27	=27	=27	=27	=27	=27	=27	=27
4r	.	1Emm	.	voice	.	95.667	E:min7
8g#q	_	.	.	.	.	.	.
4a	shine	.	.	.	.	.	.
8d#q	_	.	.	.	.	.	.
8e	down	.	.	.	.	.	.
8c	a	.	.	.	.	.	.
8d	lit-	.	.	.	.	.	.
8G	-tle	.	.	.	.	.	.
=28	=28	=28	=28	=28	=28	=28	=28
4A	love	1FM	.	voice	.	97.558	F:maj
8c	on	.	.	.	.	.	.
8A	the	.	.	.	.	.	.
4c	world	.	.	.	.	.	.
8c	to-	.	.	.	.	.	.
8A	-day	.	.	.	A	.	.
=29	=29	=29	=29	=29	=29	=29	=29
4.G	_	2Dmm	.	voice	.	99.45	D:min7
8r	.	.	.	.	.	.	.
8r	.	2GMm	.	voice	.	100.396	G:7
8G	M-	.	.	.	.	.	.
8d	-make	.	.	.	.	.	.
8c	a	.	.	.	.	.	.
=30	=30	=30	=30	=30	=30	=30	=30
8d#q	_	.	.	.	.	.	.
4e	mor-	1CM	newline	voice	.	101.342	C:maj
2.g	-ning	.	.	.	.	.	.
=31	=31	=31	=31	=31	=31	=31	=31
4r	.	1Emm	.	voice	.	103.233	E:min7
8g#q	_	.	.	.	.	.	.
4a	so	.	.	.	.	.	.
8d#q	_	.	.	.	.	.	.
8e	sweet	.	.	.	.	.	.
8c	that	.	.	.	.	.	.
8d	it-	.	.	.	.	.	.
8G	-'ll	.	.	.	.	.	.
=32	=32	=32	=32	=32	=32	=32	=32
8A	have	1FM	.	voice	.	105.124	F:maj
8c	to	.	.	.	.	.	.
8c	chase	.	.	.	.	.	.
8A	my	.	.	.	.	.	.
8Bq	_	.	.	.	.	.	.
4c	blues	.	.	.	.	.	.
8c	a-	.	.	.	.	.	.
[8d	-way	.	.	.	A	.	.
=33	=33	=33	=33	=33	=33	=33	=33
4d]	_	2Bdm	.	voice	.	107.015	B:hdim7
4r	.	.	.	.	.	.	.
4r	.	2EMm	.	voice	.	107.961	E:7
8dq	_	.	.	.	.	.	.
8e-	Oh,	.	.	.	.	.	.
8d	the	.	.	.	.	.	.
=34	=34	=34	=34	=34	=34	=34	=34
8d	moon	1Am	newline	voice	.	108.907	A:min
8c	_	.	.	.	.	.	.
8c	and	.	.	.	.	.	.
8d#q	_	.	.	.	.	.	.
[8e	stars	.	.	.	.	.	.
8e]	_	.	.	.	.	.	.
8d	have	.	.	.	.	.	.
16e	_	.	.	.	.	.	.
16d	_	.	.	.	.	.	.
8c	_	.	.	.	.	.	.
=35	=35	=35	=35	=35	=35	=35	=35
4c	gone	2Gm	.	voice	B	110.774	G:min
4r	.	.	.	.	.	.	.
8r	.	2CMm	.	voice	.	111.708	C:7
8c	and	.	.	.	.	.	.
8e	I	.	.	.	.	.	.
8d	can	.	.	.	.	.	.
=36	=36	=36	=36	=36	=36	=36	=36
4c	see	1FMM	.	voice	.	112.642	F:maj7
8c	the	.	.	.	.	.	.
[8f	light	.	.	.	.	.	.
8f]	_	.	.	.	.	.	.
4a	of	.	.	.	.	.	.
[8cc	dawn	.	.	.	B	.	.
=37	=37	=37	=37	=37	=37	=37	=37
2cc]	_	1DMm	.	voice	.	114.509	D:7
8r	.	.	.	.	.	.	.
8c	L-	.	.	.	.	.	.
8c	-like	.	.	.	.	.	.
8c	a	.	.	.	.	.	.
=38	=38	=38	=38	=38	=38	=38	=38
8e	gol-	2CM	newline	voice	.	116.376	C:maj/5
4g	-den	.	.	.	.	.	.
8g	smile	.	.	.	.	.	.
8a	_	2AMm	.	voice	.	117.338	A:7
8r	.	.	.	.	.	.	.
8A	bright-	.	.	.	.	.	.
8A	-'ning	.	.	.	.	.	.
=39	=39	=39	=39	=39	=39	=39	=39
8dq	_	.	.	.	.	.	.
4e	up	2Ddm	.	voice	.	118.3	D:hdim7
8e	the	.	.	.	.	.	.
[8a-	brand	.	.	.	.	.	.
8a-]	_	2GMm	.	voice	.	119.262	G:7(b9)
4B	new	.	.	.	.	.	.
[8c	day	.	.	.	A	.	.
=40	=40	=40	=40	=40	=40	=40	=40
*>Letter>B	*>Letter>B	*>Letter>B	*>Letter>B	*>Letter>B	*>Letter>B	*>Letter>B	*>Letter>B
*>Label>Trans	*>Label>Trans	*>Label>Trans	*>Label>Trans	*>Label>Trans	*>Label>Trans	*>Label>Trans	*>Label>Trans
4c]	_	1CM	newline	piano	.	120.224	C:maj
4r	.	.	.	.	.	.	.
2r	.	.	.	.	.	.	.
=41	=41	=41	=41	=41	=41	=41	=41
1r	.	2GM	.	piano	.	122.069	G:maj/4
.	.	2FM	.	piano	.	122.991	F:maj/5
=42	=42	=42	=42	=42	=42	=42	=42
*>Letter>C	*>Letter>C	*>Letter>C	*>Letter>C	*>Letter>C	*>Letter>C	*>Letter>C	*>Letter>C
*>Label>Verse	*>Label>Verse	*>Label>Verse	*>Label>Verse	*>Label>Verse	*>Label>Verse	*>Label>Verse	*>Label>Verse
4e	Sun-	1CM	newline	voice	.	123.914	C:maj
2.g	-rise	.	.	.	.	.	.
=43	=43	=43	=43	=43	=43	=43	=43
4r	.	1Emm	.	voice	.	125.809	E:min7
8g#q	_	.	.	.	.	.	.
4a	come	.	.	.	.	.	.
8d#q	_	.	.	.	.	.	.
8e	wrap	.	.	.	.	.	.
8c	me	.	.	.	.	.	.
8d	in	.	.	.	.	.	.
8G	the	.	.	.	.	.	.
=44	=44	=44	=44	=44	=44	=44	=44
4A	warmth	1FM	.	voice	.	127.704	F:maj
8c	of	.	.	.	.	.	.
8A	your	.	.	.	.	.	.
4c	crim-	.	.	.	.	.	.
8c	-son	.	.	.	.	.	.
8A	sky	.	.	.	C	.	.
=45	=45	=45	=45	=45	=45	=45	=45
4.G	_	2Dmm	.	voice	.	129.599	D:min7
8r	.	.	.	.	.	.	.
8r	.	2GMm	.	voice	.	130.547	G:7
8G	I	.	.	.	.	.	.
8d	spent	.	.	.	.	.	.
8c	a	.	.	.	.	.	.
=46	=46	=46	=46	=46	=46	=46	=46
8d#q	_	.	.	.	.	.	.
4e	long	1CM	newline	voice	.	131.494	C:maj
[4g	time	.	.	.	C	.	.
8.g]	_	.	.	.	.	.	.
16f	_	.	.	.	.	.	.
4e	_	.	.	.	.	.	.
=47	=47	=47	=47	=47	=47	=47	=47
4r	.	1Emm	.	voice	.	133.372	E:min7
8g#q	_	.	.	.	.	.	.
8a	be-	.	.	.	.	.	.
8d#q	_	.	.	.	.	.	.
[8e	-lie	.	.	.	.	.	.
16e]	_	.	.	.	.	.	.
16d	_	.	.	.	.	.	.
8c	ving	.	.	.	.	.	.
8d	in	.	.	.	.	.	.
8G	a	.	.	.	.	.	.
=48	=48	=48	=48	=48	=48	=48	=48
8A	dream	1FM	.	voice	.	135.25	F:maj
8c	_	.	.	.	.	.	.
8c	that	.	.	.	.	.	.
8A	had	.	.	.	.	.	.
8Bq	_	.	.	.	.	.	.
4c	passed	.	.	.	.	.	.
8c	me	.	.	.	.	.	.
[8d	by	.	.	.	C	.	.
=49	=49	=49	=49	=49	=49	=49	=49
4.d]	_	2Bdm	.	voice	.	137.128	B:hdim7
8r	.	.	.	.	.	.	.
4r	.	2EMm	.	voice	.	138.067	E:7
8e	But	.	.	.	.	.	.
8d	the	.	.	.	.	.	.
=50	=50	=50	=50	=50	=50	=50	=50
8d	moon	1Am	newline	voice	.	139.006	A:min
8c	_	.	.	.	.	.	.
8c	and	.	.	.	.	.	.
8d#q	_	.	.	.	.	.	.
[8e	stars	.	.	.	.	.	.
8e]	_	.	.	.	.	.	.
8d	have	.	.	.	.	.	.
16e	_	.	.	.	.	.	.
16d	_	.	.	.	.	.	.
8c	_	.	.	.	.	.	.
=51	=51	=51	=51	=51	=51	=51	=51
4c	gone	2Gm	.	voice	B	140.872	G:min
4r	.	.	.	.	.	.	.
8r	.	2CMm	.	voice	.	141.805	C:7
8c	and	.	.	.	.	.	.
8e	I	.	.	.	.	.	.
8d	can	.	.	.	.	.	.
=52	=52	=52	=52	=52	=52	=52	=52
4c	see	1FMM	.	voice	.	142.737	F:maj7
8c	the	.	.	.	.	.	.
[8f	light	.	.	.	.	.	.
8f]	_	.	.	.	.	.	.
4a	of	.	.	.	.	.	.
[8cc	dawn	.	.	.	B	.	.
=53	=53	=53	=53	=53	=53	=53	=53
2cc]	_	1DMm	.	voice	.	144.603	D:7
8r	.	.	.	.	.	.	.
8c	L-	.	.	.	.	.	.
8c	-like	.	.	.	.	.	.
8c	a	.	.	.	.	.	.
=54	=54	=54	=54	=54	=54	=54	=54
8e	gol-	2CM	newline	voice	.	146.469	C:maj/5
4g	-den	.	.	.	.	.	.
8g	smile	.	.	.	.	.	.
8a	_	2AMm	.	voice	.	147.413	A:7
8r	.	.	.	.	.	.	.
8A	bright-	.	.	.	.	.	.
8A	-'ning	.	.	.	.	.	.
=55	=55	=55	=55	=55	=55	=55	=55
8dq	_	.	.	.	.	.	.
4e	up	2Ddm	.	voice	.	148.357	D:hdim7
8e	the	.	.	.	.	.	.
[8a-	mor	.	.	.	.	.	.
8a-]	_	2GMm	.	voice	.	149.301	G:7(b9)
4B	ning	.	.	.	.	.	.
[8c	sky	.	.	.	C	.	.
=56	=56	=56	=56	=56	=56	=56	=56
*>Letter>B2	*>Letter>B2	*>Letter>B2	*>Letter>B2	*>Letter>B2	*>Letter>B2	*>Letter>B2	*>Letter>B2
*>Label>Trans	*>Label>Trans	*>Label>Trans	*>Label>Trans	*>Label>Trans	*>Label>Trans	*>Label>Trans	*>Label>Trans
4c]	_	1CM	newline	piano	.	150.245	C:maj
4r	.	.	.	.	.	.	.
2r	.	.	.	.	.	.	.
=57	=57	=57	=57	=57	=57	=57	=57
*A-:	*	*	*	*	*	*	*
1r	.	1A-M	.	piano	.	152.095	A-:maj
=58	=58	=58	=58	=58	=58	=58	=58
*>Letter>D	*>Letter>D	*>Letter>D	*>Letter>D	*>Letter>D	*>Letter>D	*>Letter>D	*>Letter>D
*>Label>Bridge	*>Label>Bridge	*>Label>Bridge	*>Label>Bridge	*>Label>Bridge	*>Label>Bridge	*>Label>Bridge	*>Label>Bridge
4r	.	1B-m	newline	voice	.	153.945	B-:min
8d-	From	.	.	.	.	.	.
8c	my	.	.	.	.	.	.
8d-	bed	.	.	.	.	.	.
8f	I	.	.	.	.	.	.
8b-q	_	.	.	.	.	.	.
8cc	can	.	.	.	.	.	.
[8b-	hear	.	.	.	.	.	.
=59	=59	=59	=59	=59	=59	=59	=59
8b-]	_	1E-MM	.	voice	.	155.874	E-:maj7
8fq	_	.	.	.	.	.	.
4g	the	.	.	.	.	.	.
[8f	world	.	.	.	.	.	.
8f]	_	.	.	.	.	.	.
8g	out-	.	.	.	.	.	.
4B-	-side	.	.	.	D	.	.
=60	=60	=60	=60	=60	=60	=60	=60
4r	.	1B-mm	.	voice	.	157.804	B-:min7
8d-	I	.	.	.	.	.	.
8c	get	.	.	.	.	.	.
8d-	up,	.	.	.	.	.	.
8f	throw	.	.	.	.	.	.
8b-q	_	.	.	.	.	.	.
8cc	my	.	.	.	.	.	.
[8b-	win	.	.	.	.	.	.
=61	=61	=61	=61	=61	=61	=61	=61
8b-]	_	1E-M	.	voice	.	159.733	E-:maj/b7
8fq	_	.	.	.	.	.	.
4g	dow	.	.	.	.	.	.
[8f	o	.	.	.	.	.	.
8f]	_	.	.	.	.	.	.
8g	pen	.	.	.	.	.	.
4e-	wide,	.	.	.	D	.	.
=62	=62	=62	=62	=62	=62	=62	=62
4r	.	1Cm	newline	voice	.	161.662	C:min
8e-	take	.	.	.	.	.	.
8d	a	.	.	.	.	.	.
8e-	breath	.	.	.	.	.	.
8f	of	.	.	.	.	.	.
4g	that	.	.	.	.	.	.
=63	=63	=63	=63	=63	=63	=63	=63
4.a-	fresh	2Fm	.	voice	.	163.607	F:min
8c	_	.	.	.	.	.	.
2c	air	2Fm	.	voice	.	164.579	F:min/b7
=64	=64	=64	=64	=64	=64	=64	=64
4r	.	2D-M	.	voice	.	165.552	D-:maj
8d-	take	.	.	.	.	.	.
8e-	a	.	.	.	.	.	.
8f	breath	2D-M	.	voice	.	166.524	D-:maj/b7
8g	of	.	.	.	.	.	.
4a-	that	.	.	.	.	.	.
=65	=65	=65	=65	=65	=65	=65	=65
*C:	*	*	*	*	*	*	*
4.a-	fresh	2G-M	.	voice	.	167.496	G-:maj/3
8d	_	.	.	.	.	.	.
2d	air,	2AM	.	voice	.	168.469	A:maj
=66	=66	=66	=66	=66	=66	=66	=66
[2.b	fresh	2GM	newline	voice	.	169.441	G:maj
.	.	2GM	.	voice	.	170.4	G:maj/b7
4b]	_	.	.	.	.	.	.
=67	=67	=67	=67	=67	=67	=67	=67
1g	air!	2GM	.	voice	.	171.359	G:maj/6
.	.	2GM	.	voice	.	172.318	G:maj/5
=68	=68	=68	=68	=68	=68	=68	=68
1r	.	1N	.	piano	.	173.277	N.C.
=69	=69	=69	=69	=69	=69	=69	=69
*M3/4	*	*M3/4	*M3/4	*M3/4	*	*M3/4	*M3/4
2.r	.	2.N	.	piano	.	175.196	N.C.
=70	=70	=70	=70	=70	=70	=70	=70
*>Letter>C	*>Letter>C	*>Letter>C	*>Letter>C	*>Letter>C	*>Letter>C	*>Letter>C	*>Letter>C
*>Label>Verse	*>Label>Verse	*>Label>Verse	*>Label>Verse	*>Label>Verse	*>Label>Verse	*>Label>Verse	*>Label>Verse
*	*	*M4/4	*M4/4	*M4/4	*	*M4/4	*M4/4
4e	Sun-	1CM	newline	voice	.	176.634	C:maj
2.g	-rise	.	.	.	.	.	.
=71	=71	=71	=71	=71	=71	=71	=71
4r	.	1Emm	.	voice	.	178.55	E:min7
8g#q	_	.	.	.	.	.	.
4a	shine	.	.	.	.	.	.
8d#q	_	.	.	.	.	.	.
8e	down	.	.	.	.	.	.
8c	a	.	.	.	.	.	.
8d	lit-	.	.	.	.	.	.
8G	-tle	.	.	.	.	.	.
=72	=72	=72	=72	=72	=72	=72	=72
4A	love	1FM	.	voice	.	180.466	F:maj
8c	on	.	.	.	.	.	.
8A	the	.	.	.	.	.	.
4c	world	.	.	.	.	.	.
8c	to-	.	.	.	.	.	.
8A	-day	.	.	.	A	.	.
=73	=73	=73	=73	=73	=73	=73	=73
4.G	_	2Dmm	.	voice	.	182.381	D:min7
8r	.	.	.	.	.	.	.
8r	.	2GMm	.	voice	.	183.339	G:7
8G	M-	.	.	.	.	.	.
8d	-make	.	.	.	.	.	.
8c	a	.	.	.	.	.	.
=74	=74	=74	=74	=74	=74	=74	=74
8d#q	_	.	.	.	.	.	.
4e	mor-	1CM	newline	voice	.	184.297	C:maj
2.g	-ning	.	.	.	.	.	.
=75	=75	=75	=75	=75	=75	=75	=75
4r	.	1Emm	.	voice	.	186.188	E:min7
8g#q	_	.	.	.	.	.	.
4a	so	.	.	.	.	.	.
8d#q	_	.	.	.	.	.	.
8e	sweet	.	.	.	.	.	.
8c	that	.	.	.	.	.	.
8d	it-	.	.	.	.	.	.
8G	-'ll	.	.	.	.	.	.
=76	=76	=76	=76	=76	=76	=76	=76
8A	have	1FM	.	voice	.	188.078	F:maj
8c	to	.	.	.	.	.	.
8c	chase	.	.	.	.	.	.
8A	my	.	.	.	.	.	.
8Bq	_	.	.	.	.	.	.
4c	blues	.	.	.	.	.	.
8c	a-	.	.	.	.	.	.
[8d	-way	.	.	.	A	.	.
=77	=77	=77	=77	=77	=77	=77	=77
4d]	_	2Bdm	.	voice	.	189.968	B:hdim7
4r	.	.	.	.	.	.	.
4r	.	2EMm	.	voice	.	190.913	E:7
8dq	_	.	.	.	.	.	.
8e-	Oh,	.	.	.	.	.	.
8d	the	.	.	.	.	.	.
=78	=78	=78	=78	=78	=78	=78	=78
8d	moon	1Am	newline	voice	.	191.859	A:min
8c	_	.	.	.	.	.	.
8c	and	.	.	.	.	.	.
8d#q	_	.	.	.	.	.	.
[8e	stars	.	.	.	.	.	.
8e]	_	.	.	.	.	.	.
8d	have	.	.	.	.	.	.
16e	_	.	.	.	.	.	.
16d	_	.	.	.	.	.	.
8c	_	.	.	.	.	.	.
=79	=79	=79	=79	=79	=79	=79	=79
4c	gone	2Gm	.	voice	B	193.734	G:min
4r	.	.	.	.	.	.	.
8r	.	2CMm	.	voice	.	194.672	C:7
8c	and	.	.	.	.	.	.
8e	I	.	.	.	.	.	.
8d	can	.	.	.	.	.	.
=80	=80	=80	=80	=80	=80	=80	=80
4c	see	1FMM	.	voice	.	195.609	F:maj7
8c	the	.	.	.	.	.	.
[8f	light	.	.	.	.	.	.
8f]	_	.	.	.	.	.	.
4a	of	.	.	.	.	.	.
[8cc	dawn	.	.	.	B	.	.
=81	=81	=81	=81	=81	=81	=81	=81
2cc]	_	1DMm	.	voice	.	197.485	D:7
8r	.	.	.	.	.	.	.
8c	L-	.	.	.	.	.	.
8c	-like	.	.	.	.	.	.
8c	a	.	.	.	.	.	.
=82	=82	=82	=82	=82	=82	=82	=82
8e	gol-	2CM	newline	voice	.	199.36	C:maj/5
4g	-den	.	.	.	.	.	.
8g	smile	.	.	.	.	.	.
8a	_	2AMm	.	voice	.	200.3	A:7
8r	.	.	.	.	.	.	.
8A	bright-	.	.	.	.	.	.
8A	-'ning	.	.	.	.	.	.
=83	=83	=83	=83	=83	=83	=83	=83
8dq	_	.	.	.	.	.	.
4e	up	2Ddm	.	voice	.	201.24	D:hdim7
8e	the	.	.	.	.	.	.
[8a-	brand	.	.	.	.	.	.
8a-]	_	2GMm	.	voice	.	202.18	G:7(b9)
4B	new	.	.	.	.	.	.
[8c	day	.	.	.	A	.	.
=84	=84	=84	=84	=84	=84	=84	=84
*>Letter>B2	*>Letter>B2	*>Letter>B2	*>Letter>B2	*>Letter>B2	*>Letter>B2	*>Letter>B2	*>Letter>B2
*>Label>Trans	*>Label>Trans	*>Label>Trans	*>Label>Trans	*>Label>Trans	*>Label>Trans	*>Label>Trans	*>Label>Trans
2c]	_	2A-M	newline	guitar	.	203.12	A-:maj
2r	.	2A-M	.	guitar	.	204.059	A-:maj/b7
=85	=85	=85	=85	=85	=85	=85	=85
4r	.	2A-M	.	guitar	.	204.997	A-:maj/6
8r	.	.	.	.	.	.	.
8cq	_	.	.	.	.	.	.
[8d	Brand	.	.	.	.	.	.
8d]	_	2A-M	.	guitar	.	205.936	A-:maj/5
4.e-	new	.	.	.	.	.	.
=86	=86	=86	=86	=86	=86	=86	=86
[1a-	day	2A-M	.	guitar	A	206.875	A-:maj
.	.	2A-M	.	guitar	.	207.813	A-:maj/b7
=87	=87	=87	=87	=87	=87	=87	=87
2.a-]	_	2A-M	.	guitar	.	208.752	A-:maj/6
.	.	2A-M	.	guitar	.	209.691	A-:maj/5
4r	.	.	.	.	.	.	.
=88	=88	=88	=88	=88	=88	=88	=88
*>Letter>D	*>Letter>D	*>Letter>D	*>Letter>D	*>Letter>D	*>Letter>D	*>Letter>D	*>Letter>D
*>Label>Outro	*>Label>Outro	*>Label>Outro	*>Label>Outro	*>Label>Outro	*>Label>Outro	*>Label>Outro	*>Label>Outro
1r	.	1CM	newline	piano	.	210.63	C:maj
=89	=89	=89	=89	=89	=89	=89	=89
1r	.	1E-M	.	piano	.	212.399	E-:maj
=90	=90	=90	=90	=90	=90	=90	=90
1r	.	1B-M	.	piano	.	214.169	B-:maj
=91	=91	=91	=91	=91	=91	=91	=91
1r	.	1FM	.	piano	.	215.939	F:maj
=92	=92	=92	=92	=92	=92	=92	=92
1r	.	1CM	newline	piano	.	217.709	C:maj
=93	=93	=93	=93	=93	=93	=93	=93
1r	.	1E-M	.	piano	.	219.463	E-:maj
=94	=94	=94	=94	=94	=94	=94	=94
1r	.	1B-M	.	piano	.	221.216	B-:maj
=95	=95	=95	=95	=95	=95	=95	=95
1r	.	1FM	.	piano	.	222.97	F:maj
=96	=96	=96	=96	=96	=96	=96	=96
1r	.	1CM	newline	guitar	.	224.723	C:maj
=97	=97	=97	=97	=97	=97	=97	=97
1r	.	1E-M	.	guitar	.	226.484	E-:maj
=98	=98	=98	=98	=98	=98	=98	=98
1r	.	1B-M	.	guitar	.	228.244	B-:maj
=99	=99	=99	=99	=99	=99	=99	=99
1r	.	1FM	.	guitar	.	230.005	F:maj
=100	=100	=100	=100	=100	=100	=100	=100
1r	.	1CM	newline	guitar	.	231.765	C:maj
=101	=101	=101	=101	=101	=101	=101	=101
1r	.	1E-M	.	guitar	.	233.511	E-:maj
=102	=102	=102	=102	=102	=102	=102	=102
1r	.	1B-M	.	guitar	.	235.257	B-:maj
=103	=103	=103	=103	=103	=103	=103	=103
1r	.	1FM	.	guitar	.	237.003	F:maj
=104	=104	=104	=104	=104	=104	=104	=104
1r	.	1CM	newline	guitar	.	238.749	C:maj
=105	=105	=105	=105	=105	=105	=105	=105
1r	.	1E-M	.	guitar	.	240.484	E-:maj
=106	=106	=106	=106	=106	=106	=106	=106
1r	.	1B-M	.	guitar	.	242.22	B-:maj
=107	=107	=107	=107	=107	=107	=107	=107
1r	.	1FM	.	guitar	.	243.955	F:maj
=108	=108	=108	=108	=108	=108	=108	=108
1r	.	1CM	newline	guitar	.	245.691	C:maj
=109	=109	=109	=109	=109	=109	=109	=109
1r	.	1E-M	.	guitar	.	247.433	E-:maj
=110	=110	=110	=110	=110	=110	=110	=110
1r	.	1B-M	.	guitar	.	249.176	B-:maj
=111	=111	=111	=111	=111	=111	=111	=111
1r	.	1FM	.	guitar	.	250.918	F:maj
=112	=112	=112	=112	=112	=112	=112	=112
1r	.	1CM	newline	trumpet	.	252.66	C:maj
=113	=113	=113	=113	=113	=113	=113	=113
1r	.	1E-M	.	trumpet	.	254.436	E-:maj
=114	=114	=114	=114	=114	=114	=114	=114
1r	.	1B-M	.	trumpet	.	256.212	B-:maj
=115	=115	=115	=115	=115	=115	=115	=115
1r	.	1FM	.	trumpet	.	257.988	F:maj
=116	=116	=116	=116	=116	=116	=116	=116
1r	.	1CM	newline	guitar	.	259.764	C:maj
=117	=117	=117	=117	=117	=117	=117	=117
1r	.	1E-M	.	guitar	.	261.479	E-:maj
=118	=118	=118	=118	=118	=118	=118	=118
1r	.	1B-M	.	guitar	.	263.194	B-:maj
=119	=119	=119	=119	=119	=119	=119	=119
1r	.	1FM	.	guitar	.	264.909	F:maj
=120	=120	=120	=120	=120	=120	=120	=120
1r	.	1N	newline	guitar	.	266.624	N.C.
=121	=121	=121	=121	=121	=121	=121	=121
1r	.	1E-M	.	guitar	.	268.314	E-:maj
=122	=122	=122	=122	=122	=122	=122	=122
1r	.	1B-M	.	guitar	.	270.004	B-:maj
=123	=123	=123	=123	=123	=123	=123	=123
1r	.	1FM	.	guitar	.	271.694	F:maj
=124	=124	=124	=124	=124	=124	=124	=124
1r	.	1CM	newline	guitar	.	273.384	C:maj
=125	=125	=125	=125	=125	=125	=125	=125
1r	.	1E-M	.	guitar	.	275.08	E-:maj
=126	=126	=126	=126	=126	=126	=126	=126
1r	.	1B-M	.	guitar	.	276.775	B-:maj
=127	=127	=127	=127	=127	=127	=127	=127
1r	.	1FM	.	guitar	.	278.471	F:maj
=128	=128	=128	=128	=128	=128	=128	=128
1r	.	1CM	newline	guitar	.	280.166	C:maj
=129	=129	=129	=129	=129	=129	=129	=129
1r	.	1E-M	.	guitar	.	281.849	E-:maj
=130	=130	=130	=130	=130	=130	=130	=130
1r	.	1B-M	.	guitar	.	283.532	B-:maj
=131	=131	=131	=131	=131	=131	=131	=131
1r	.	1FM	.	guitar	.	285.215	F:maj
=132	=132	=132	=132	=132	=132	=132	=132
1r	.	1CM	newline	guitar	.	286.898	C:maj
=133	=133	=133	=133	=133	=133	=133	=133
1r	.	1E-M	.	guitar	.	288.605	E-:maj
=134	=134	=134	=134	=134	=134	=134	=134
1r	.	1B-M	.	guitar	.	290.311	B-:maj
=135	=135	=135	=135	=135	=135	=135	=135
1r	.	1FM	.	guitar	.	292.018	F:maj
=136	=136	=136	=136	=136	=136	=136	=136
*>Label>>Fadeout	*>Label>>Fadeout	*>Label>>Fadeout	*>Label>>Fadeout	*>Label>>Fadeout	*>Label>>Fadeout	*>Label>>Fadeout	*>Label>>Fadeout
1r	.	1CM	newline	guitar	.	293.724	C:maj
=137	=137	=137	=137	=137	=137	=137	=137
1r	.	1E-M	.	guitar	.	295.413	E-:maj
=138	=138	=138	=138	=138	=138	=138	=138
1r	.	1B-M	.	guitar	.	297.102	B-:maj
=139	=139	=139	=139	=139	=139	=139	=139
1r	.	1FM	.	guitar	.	298.791	F:maj
=140	=140	=140	=140	=140	=140	=140	=140
1r	.	1CM	newline	guitar	.	300.48	C:maj
=141	=141	=141	=141	=141	=141	=141	=141
1r	.	1E-M	.	guitar	.	302.159	E-:maj
=142	=142	=142	=142	=142	=142	=142	=142
1r	.	1B-M	.	guitar	.	303.837	B-:maj
=143	=143	=143	=143	=143	=143	=143	=143
1r	.	1FM	.	guitar	.	305.516	F:maj
=144	=144	=144	=144	=144	=144	=144	=144
1r	.	1CM	newline	guitar	.	307.194	C:maj
=145	=145	=145	=145	=145	=145	=145	=145
1r	.	1E-M	.	guitar	.	308.904	E-:maj
=146	=146	=146	=146	=146	=146	=146	=146
1r	.	1B-M	.	guitar	.	310.614	B-:maj
=147	=147	=147	=147	=147	=147	=147	=147
1r	.	1FM	.	guitar	.	312.324	F:maj
=148	=148	=148	=148	=148	=148	=148	=148
1r	.	1CM	newline	guitar	.	314.034	C:maj
=149	=149	=149	=149	=149	=149	=149	=149
1r	.	1E-M	.	guitar	.	315.431	E-:maj
=150	=150	=150	=150	=150	=150	=150	=150
1r	.	1B-M	.	guitar	.	316.829	B-:maj
=151	=151	=151	=151	=151	=151	=151	=151
1r	.	1FM	.	guitar	.	318.226	F:maj
r;	.	1r;	.	r	.	319.623	N.C.
r;	.	1r;	.	r	.	321.149	N.C.
*-	*-	*-	*-	*-	*-	*-	*-
!!!BillboardChartDate: 1976/08/28
!!!BillboardPeak: 34
!!!BillboardWeeksOnChart: 10
!!!COC: Eric Carmen
!!!ENC: Nathaniel Condit-Schultz
!!!EST: Awating manual error checking and editing.
!!!OTL: Sunrise
!!!RDF**chordsym: original McGill chord annotation + (implied pitch class set, with bass pitch in first position)
!!!RDF**harmony: **recip + pitch class of root + harmonic quality
!!!RDF**leadinstrument: original McGill primary instrumentation annotation
!!!RDF**phrase: newline = linebreak in original McGill transcription
!!!RDF**timestamp: McGill audio timestamp in seconds
!!!RDT: 2017/01/12/
!!!SampleActualRank: 66
!!!SampleID#: 0655
!!!SampleTargetRank: 67
